svgs/light/user-lock.svg

<svg xmlns="http://www.w3.org/2000/svg" viewBox="0 0 640 512"><!-- Font Awesome Pro 6.0.0-alpha2 by @fontawesome - https://fontawesome.com License - https://fontawesome.com/license (Commercial License) --><path d="M576 288V208C576 163.891 540.125 128 496 128S416 163.891 416 208V288C380.654 288 352 316.652 352 352V448C352 483.346 380.654 512 416 512H576C611.346 512 640 483.346 640 448V352C640 316.652 611.346 288 576 288ZM448 208C448 181.531 469.531 160 496 160S544 181.531 544 208V288H448V208ZM608 448C608 465.645 593.645 480 576 480H416C398.356 480 384 465.645 384 448V352C384 334.355 398.356 320 416 320H576C593.645 320 608 334.355 608 352V448ZM496 376C482.746 376 472 386.744 472 400C472 413.254 482.746 424 496 424S520 413.254 520 400C520 386.744 509.254 376 496 376ZM224 256C294.695 256 352 198.691 352 128S294.695 0 224 0C153.313 0 96 57.309 96 128S153.313 256 224 256ZM224 32C276.936 32 320 75.064 320 128C320 180.934 276.936 224 224 224S128 180.934 128 128C128 75.064 171.065 32 224 32ZM173.336 336H274.664C284.18 336 293.426 337.062 302.369 338.971C312.639 341.162 322.274 332.764 321.367 322.303C321.358 322.186 321.348 322.066 321.336 321.947C320.719 314.705 315.455 308.865 308.33 307.424C297.442 305.221 286.203 304 274.664 304H173.336C77.539 304 -0.115 381.715 0 477.543C0.024 496.574 15.633 512 34.664 512H304C312.836 512 320 504.836 320 496C320 487.162 312.836 480 304 480H34.664C33.213 480 32 478.793 32 477.342C31.994 399.404 95.399 336 173.336 336Z"/></svg>

<svg xmlns="http://www.w3.org/2000/svg" viewBox="0 0 640 512"><!--! Font Awesome Pro 6.0.0-alpha3 by @fontawesome - https://fontawesome.com License - https://fontawesome.com/license (Commercial License) --><path d="M576 288V208c0-44.11-35.87-80-79.1-80S416 163.9 416 208V288c-35.35 0-64 28.65-64 64v96c0 35.35 28.65 64 64 64h160c35.35 0 64-28.65 64-64v-96C640 316.7 611.3 288 576 288zM448 208C448 181.5 469.5 160 496 160S544 181.5 544 208V288h-96V208zM608 448c0 17.64-14.36 32-32 32h-160c-17.64 0-32-14.36-32-32v-96c0-17.64 14.36-32 32-32h160c17.64 0 32 14.36 32 32V448zM496 376c-13.25 0-24 10.74-24 24c0 13.25 10.75 24 24 24s24-10.75 24-24C520 386.7 509.3 376 496 376zM224 256c70.7 0 128-57.31 128-128S294.7 0 224 0C153.3 0 96 57.31 96 128S153.3 256 224 256zM224 32c52.94 0 96 43.06 96 96c0 52.93-43.06 96-96 96S128 180.9 128 128C128 75.06 171.1 32 224 32zM173.3 336H274.7c9.516 0 18.76 1.062 27.71 2.971c10.27 2.191 19.9-6.207 18.1-16.67c-.0098-.1172-.0195-.2363-.0313-.3555c-.6172-7.242-5.881-13.08-13.01-14.52C297.4 305.2 286.2 304 274.7 304H173.3C77.54 304-.1152 381.6 0 477.4C.0234 496.4 15.63 512 34.66 512H304c8.836 0 16-7.164 16-16c0-8.838-7.164-16-16-16H34.66C33.21 480 32 478.8 32 477.3C31.99 399.4 95.4 336 173.3 336z"/></svg>
